X: 313
T:Chicago Jig
M:6/8
L:1/8
R:jig
D:Maeve Donnelly: Maeve Donnelly
Z:Devin McCabe
K:DMix
DFA GAG|FDD CDE|E~=F2 GFG|AGA dAF|
!DFA GAG|FDD CDE|=FAc GEC|EDC D2A,:|
!:DFA dAA|BGG AFA|DFA ded|BGB AB^c|
!dBd cAc|BGB AFA|DFA GEC|DED D2A,:|
